%
O1001
(T1 D=0.25 CR=0. - ZMIN=0. - FRAISE DEUX TAILLES)
N10 G90 G94 G17 G49 G40 G80
N15 G21
(WHEN USING FUSION 360 FOR PERSONAL USE, THE FEEDRATE OF)
(RAPID MOVES IS REDUCED TO MATCH THE FEEDRATE OF CUTTING)
(MOVES, WHICH CAN INCREASE MACHINING TIME. UNRESTRICTED RAPID)
(MOVES ARE AVAILABLE WITH A FUSION 360 SUBSCRIPTION.)
N20 G28 G91 Z0.
N25 G90

(CONTOUR 2D2)
N30 T1 M06
N35 S5000 M03
N40 G54
N45 M08
N50 G00 X+0.2 Y+0.025
N55 G43 Z16. H01
N60 G91
N65 G01 Z-10. F1000.
N70 Z-4. F333.
N75 Z-1.975
N80 X-0.007 Z-0.018 F1000.
N85 X-0.018 Z-0.007
N90 X-0.025
N95 X-0.018 Y-0.007
N100 X-0.007 Y-0.018
N105 Y-150.
N110 X-0.006 Y-0.038
N115 X-0.017 Y-0.035
N120 X-0.027 Y-0.027
N125 X-0.034 Y-0.018
N130 X-0.038 Y-0.007
N135 X-0.039 Y0.005
N140 G03 X-18.068 Y0.499 I-9.965 J-33.421
N145 G01 X-0.037 Y-0.003
N150 X-0.035 Y0.007
N155 X-0.032 Y0.018
N160 X-0.026 Y0.025
N165 X-0.017 Y0.032
N170 X-1.788 Y4.914
N175 G03 X-7.283 Y-2.65 I-3.641 J-1.325
N180 G01 X1.788 Y-4.914
N185 X0.008 Y-0.036
N190 X-0.003 Y-0.036
N195 X-0.014 Y-0.034
N200 X-0.022 Y-0.028
N205 X-0.03 Y-0.021
N210 G03 X-19.052 Y-27.208 I15.595 J-31.194
N215 G01 X-0.009 Y-0.035
N220 X-0.019 Y-0.031
N225 X-0.027 Y-0.024
N230 X-0.033 Y-0.016
N235 X-0.036 Y-0.005
N240 X-5.229
N245 G03 Y-7.75 J-3.875
N250 G01 X5.229
N255 X0.036 Y-0.005
N260 X0.033 Y-0.016
N265 X0.027 Y-0.024
N270 X0.019 Y-0.031
N275 X0.009 Y-0.035
N280 G03 X19.052 Y-27.208 I34.647 J3.986
N285 G01 X0.03 Y-0.021
N290 X0.022 Y-0.028
N295 X0.014 Y-0.034
N300 X0.003 Y-0.036
N305 X-0.008 Y-0.036
N310 X-1.788 Y-4.914
N315 G03 X7.283 Y-2.65 I3.641 J-1.325
N320 G01 X1.788 Y4.914
N325 X0.017 Y0.032
N330 X0.026 Y0.025
N335 X0.032 Y0.018
N340 X0.035 Y0.007
N345 X0.037 Y-0.003
N350 G03 X18.068 Y0.499 I8.104 J33.92
N355 G01 X0.039 Y0.005
N360 X0.038 Y-0.007
N365 X0.034 Y-0.018
N370 X0.027 Y-0.027
N375 X0.017 Y-0.035
N380 X0.006 Y-0.038
N385 Y-136.186
N390 X0.007 Y-0.018
N395 X0.018 Y-0.007
N400 X0.025
N405 X0.018 Z0.007
N410 X0.007 Z0.018
N415 Z15.975
N420 G90

N425 M09
N430 G28 G91 Z0.
N435 G49
N440 G28 X0. Y0.
N445 M30
%
